Modules/BetterCms.Module.Root/Scss/assets/icons/editor-cms-region.svg

<svg xmlns="http://www.w3.org/2000/svg" width="20" height="20" viewBox="0 0 20 20"><path d="m19 11.02h-3v2.998c0 .548-.443.993-1 .993-.552 0-1-.455-1-.993v-2.998h-3c-.55 0-.996-.443-.996-.997 0-.551.456-.998.996-.998h3v-2.998c0-.548.444-.993 1-.993.553 0 1 .455 1 .993v2.998h3c.55 0 .995.443.995.998 0 .55-.455.997-.995.997m-5.01-10.02h-1.286v-.998h1.288c.478.001.941.171 1.302.479l-.658.765c-.176-.148-.396-.246-.646-.246m-5.357-.951h2v.998h-2v-.998m-3.929 18.955h2v.998h-2v-.998m-.271-18.955h2v.998h-2v-.998m-4.362 18.505l.98-.278c.119.417.492.728.953.728h.7v.998h-.7c-.895 0-1.689-.596-1.933-1.448m.926-16.516v.003l-1-.003c0-1.097.9-1.989 2.01-1.989h.429v.998h-.429c-.557 0-1.01.443-1.01.991m0 3.677h-1v-1.996h1v1.996m0 3.591h-1v-1.995h1v1.995m0 3.392h-1v-1.995h1v1.995m0 3.991h-1v-1.996h1v1.996m9.907 3.313h-2v-.998h2v.998m3.732-1.244l.658.765c-.361.308-.824.478-1.302.479h-1.288v-.998h1.286c.25 0 .47-.099.646-.246" fill="#303646" fill-rule="evenodd"/></svg>

<svg xmlns="http://www.w3.org/2000/svg" xmlns:xlink="http://www.w3.org/1999/xlink" preserveAspectRatio="xMidYMid" width="20" height="20" viewBox="0 0 20 20">
  <defs>
    <style>
      .cls-1 {
        fill: #303646;
        fill-rule: evenodd;
      }
    </style>
  </defs>
  <path d="M19.005,11.021 L16.000,11.021 L16.000,14.019 C16.000,14.567 15.557,15.012 15.000,15.012 C14.448,15.012 14.000,14.557 14.000,14.019 L14.000,11.021 L10.996,11.021 C10.446,11.021 10.000,10.578 10.000,10.024 C10.000,9.473 10.456,9.026 10.996,9.026 L14.000,9.026 L14.000,6.028 C14.000,5.480 14.444,5.035 15.000,5.035 C15.553,5.035 16.000,5.490 16.000,6.028 L16.000,9.026 L19.005,9.026 C19.555,9.026 20.000,9.469 20.000,10.024 C20.000,10.574 19.545,11.021 19.005,11.021 ZM13.993,0.998 L12.707,0.998 L12.707,0.000 L13.995,0.000 C14.473,0.001 14.936,0.171 15.297,0.479 L14.639,1.244 C14.463,1.096 14.243,0.998 13.993,0.998 ZM8.636,0.047 L10.636,0.047 L10.636,1.045 L8.636,1.045 L8.636,0.047 ZM4.707,19.002 L6.707,19.002 L6.707,20.000 L4.707,20.000 L4.707,19.002 ZM4.436,0.047 L6.436,0.047 L6.436,1.045 L4.436,1.045 L4.436,0.047 ZM0.074,18.552 L1.054,18.274 C1.173,18.691 1.546,19.002 2.007,19.002 L2.707,19.002 L2.707,20.000 L2.007,20.000 C1.112,20.000 0.318,19.404 0.074,18.552 ZM1.000,2.036 L1.000,2.039 L0.000,2.036 C0.000,0.939 0.900,0.047 2.007,0.047 L2.436,0.047 L2.436,1.045 L2.007,1.045 C1.450,1.045 1.000,1.488 1.000,2.036 ZM1.000,5.713 L0.000,5.713 L0.000,3.717 L1.000,3.717 L1.000,5.713 ZM1.000,9.304 L0.000,9.304 L0.000,7.309 L1.000,7.309 L1.000,9.304 ZM1.000,12.696 L0.000,12.696 L0.000,10.701 L1.000,10.701 L1.000,12.696 ZM1.000,16.687 L0.000,16.687 L0.000,14.691 L1.000,14.691 L1.000,16.687 ZM10.907,20.000 L8.907,20.000 L8.907,19.002 L10.907,19.002 L10.907,20.000 ZM14.639,18.756 L15.297,19.521 C14.936,19.829 14.473,19.999 13.995,20.000 L12.707,20.000 L12.707,19.002 L13.993,19.002 C14.243,19.002 14.463,18.903 14.639,18.756 Z" class="cls-1"/>
</svg>
